dist/img/catalog/tag_new.svg

<svg width="16" height="16" viewBox="0 0 16 16" fill="none" xmlns="http://www.w3.org/2000/svg">
<path d="M3.75018 10.2502C3.75018 11.7887 3.61353 13.2108 3.38578 14.5065H0.916016V6.02423H3.39085C3.61353 7.31478 3.75018 8.7268 3.75018 10.2502ZM14.8439 6.74289C13.9683 5.37642 12.5209 6.68216 11.4783 5.52825C10.2536 4.17696 12.4956 1.32762 10.6382 0.932859C9.40331 0.669687 8.96301 2.55238 7.93056 3.76196C6.54385 5.38654 4.89902 6.35825 4.89396 6.36331C5.0711 7.58808 5.17232 8.89381 5.17232 10.2552C5.17232 11.4395 5.0964 12.5833 4.95976 13.6663C6.73111 13.7018 8.92252 15.2454 11.1645 14.6988C13.8165 14.056 15.9016 8.39784 14.8439 6.74795V6.74289Z" fill="white"/>
</svg>

<svg width="16" height="16" viewBox="0 0 16 16" fill="none" xmlns="http://www.w3.org/2000/svg"><path d="M3.75 10.25c0 1.539-.136 2.96-.364 4.257H.916V6.024h2.475c.223 1.29.36 2.703.36 4.226zm11.094-3.507c-.876-1.367-2.323-.06-3.366-1.215-1.224-1.351 1.018-4.2-.84-4.595C9.403.67 8.963 2.553 7.931 3.762 6.544 5.387 4.899 6.358 4.894 6.363a27.305 27.305 0 01.066 7.303c1.771.036 3.963 1.58 6.205 1.033 2.652-.643 4.737-6.301 3.679-7.951v-.005z" fill="#fff"/></svg>
